; generated by Slic3r 1.3.0 on 2022-10-26 at 17:46:26

; external perimeters extrusion width = 0.44mm (0.68mm^3/s)
; perimeters extrusion width = 0.48mm (1.51mm^3/s)
; infill extrusion width = 0.48mm (1.51mm^3/s)
; solid infill extrusion width = 0.48mm (1.51mm^3/s)
; top infill extrusion width = 0.48mm (1.88mm^3/s)

M107
M190 S100 ; set bed temperature and wait for it to be reached
M104 S248 ; set temperature
G28 ; home all axes
G1 Z5 F5000 ; lift nozzle

; Filament gcode

M109 S248 ; set temperature and wait for it to be reached
G21 ; set units to millimeters
G90 ; use absolute coordinates
M82 ; use absolute distances for extrusion
G92 E0
G1 Z0.350 F900.000
G1 E-2.00000 F600.00000
G92 E0
G1 X66.121 Y127.181 F900.000
G1 E2.00000 F600.00000
G1 F480
G1 X69.509 Y125.605 E2.33974
G1 X73.154 Y124.784 E2.67947
G1 X75.155 Y124.670 E2.86173
G1 X141.655 Y124.670 E8.90854
G1 X146.430 Y125.334 E9.34698
G1 X151.742 Y126.841 E9.84904
G1 X153.237 Y127.338 E9.99230
G1 X154.215 Y127.714 E10.08755
G1 X155.888 Y128.459 E10.25405
G1 X156.821 Y128.934 E10.34929
G1 X158.407 Y129.850 E10.51585
G1 X159.285 Y130.420 E10.61103
G1 X160.767 Y131.497 E10.77758
G1 X161.581 Y132.155 E10.87276
G1 X162.942 Y133.381 E11.03931
G1 X163.682 Y134.121 E11.13448
G1 X164.908 Y135.482 E11.30105
G1 X165.566 Y136.296 E11.39623
G1 X166.643 Y137.778 E11.56276
G1 X167.213 Y138.656 E11.65797
G1 X168.142 Y140.267 E11.82707
G1 X168.604 Y141.175 E11.91970
G1 X169.349 Y142.848 E12.08625
G1 X169.724 Y143.825 E12.18143
G1 X170.290 Y145.566 E12.34790
G1 X170.561 Y146.578 E12.44317
G1 X170.942 Y148.369 E12.60960
G1 X171.106 Y149.404 E12.70489
G1 X171.297 Y151.225 E12.87146
G1 X171.352 Y152.271 E12.96664
G1 X171.376 Y153.187 E13.04994
G1 X171.376 Y165.187 E14.14109
G1 X171.352 Y166.102 E14.22433
G1 X171.297 Y167.148 E14.31957
G1 X171.106 Y168.970 E14.48615
G1 X170.942 Y170.003 E14.58133
G1 X170.561 Y171.795 E14.74786
G1 X170.290 Y172.806 E14.84304
G1 X169.725 Y174.546 E15.00938
G1 X169.349 Y175.525 E15.10479
G1 X168.604 Y177.198 E15.27130
G1 X168.129 Y178.131 E15.36652
G1 X167.197 Y179.742 E15.53575
G1 X166.643 Y180.595 E15.62824
G1 X165.567 Y182.077 E15.79475
G1 X164.908 Y182.891 E15.88998
G1 X163.683 Y184.251 E16.05642
G1 X162.942 Y184.992 E16.15172
G1 X161.581 Y186.218 E16.31827
G1 X160.767 Y186.876 E16.41345
G1 X159.286 Y187.952 E16.57990
G1 X158.407 Y188.523 E16.67519
G1 X156.821 Y189.439 E16.84174
G1 X155.888 Y189.914 E16.93691
G1 X154.215 Y190.659 E17.10348
G1 X153.238 Y191.034 E17.19865
G1 X151.830 Y191.507 E17.33373
G1 X146.518 Y193.044 E17.83654
G1 X141.655 Y193.733 E18.28316
G1 X75.155 Y193.733 E24.32998
G1 X71.440 Y193.334 E24.66971
G1 X67.894 Y192.156 E25.00945
G1 X64.680 Y190.252 E25.34919
G1 X62.963 Y188.787 E25.55439
G1 X61.702 Y187.561 E25.71432
G1 X56.702 Y182.561 E26.35729
G1 X54.358 Y179.652 E26.69703
G1 X52.684 Y176.311 E27.03677
G1 X51.757 Y172.692 E27.37650
G1 X51.577 Y170.187 E27.60489
G1 X51.577 Y148.187 E29.60534
G1 X51.976 Y144.472 E29.94508
G1 X53.154 Y140.926 E30.28482
G1 X55.058 Y137.711 E30.62455
G1 X56.702 Y135.812 E30.85295
G1 X61.702 Y130.812 E31.49592
G1 X63.145 Y129.441 E31.67695
G1 X66.073 Y127.218 E32.01123
G1 X66.501 Y127.683 F900.000
G1 F480
G1 X69.836 Y126.155 E32.34483
G1 X75.155 Y125.294 E32.83474
G1 X141.655 Y125.294 E38.88156
G1 X146.260 Y125.935 E39.30434
G1 X151.572 Y127.442 E39.80640
G1 X153.013 Y127.922 E39.94454
G1 X153.991 Y128.297 E40.03979
G1 X155.604 Y129.015 E40.20034
G1 X156.537 Y129.491 E40.29558
G1 X158.067 Y130.374 E40.45620
G1 X158.945 Y130.944 E40.55137
G1 X160.374 Y131.982 E40.71198
G1 X161.187 Y132.641 E40.80715
G1 X162.500 Y133.823 E40.96776
G1 X163.240 Y134.563 E41.06293
G1 X164.422 Y135.876 E41.22355
G1 X165.081 Y136.689 E41.31873
G1 X166.119 Y138.118 E41.47932
G1 X166.689 Y138.996 E41.57452
G1 X167.585 Y140.551 E41.73768
G1 X168.047 Y141.458 E41.83030
G1 X168.766 Y143.072 E41.99091
G1 X169.141 Y144.049 E42.08609
G1 X169.686 Y145.728 E42.24662
G1 X169.958 Y146.740 E42.34188
G1 X170.325 Y148.466 E42.50237
G1 X170.489 Y149.501 E42.59765
G1 X170.673 Y151.258 E42.75828
G1 X170.728 Y152.303 E42.85345
G1 X170.751 Y153.187 E42.93378
G1 X170.751 Y165.187 E44.02494
G1 X170.728 Y166.069 E44.10520
G1 X170.673 Y167.115 E44.20044
G1 X170.489 Y168.872 E44.36107
G1 X170.325 Y169.906 E44.45625
G1 X169.958 Y171.633 E44.61683
G1 X169.687 Y172.644 E44.71201
G1 X169.142 Y174.322 E44.87242
G1 X168.766 Y175.301 E44.96781
G1 X168.047 Y176.914 E45.12838
G1 X167.572 Y177.847 E45.22360
G1 X166.673 Y179.401 E45.38678
G1 X166.119 Y180.255 E45.47938
G1 X165.081 Y181.684 E45.63994
G1 X164.422 Y182.497 E45.73516
G1 X163.241 Y183.809 E45.89566
G1 X162.500 Y184.550 E45.99096
G1 X161.187 Y185.732 E46.15156
G1 X160.374 Y186.391 E46.24674
G1 X158.946 Y187.428 E46.40725
G1 X158.067 Y187.999 E46.50253
G1 X156.537 Y188.882 E46.66313
G1 X155.605 Y189.357 E46.75831
G1 X153.991 Y190.076 E46.91892
G1 X153.014 Y190.451 E47.01410
G1 X151.656 Y190.907 E47.14435
G1 X146.344 Y192.444 E47.64716
G1 X141.655 Y193.108 E48.07783
G1 X75.155 Y193.108 E54.12465
G1 X71.508 Y192.710 E54.45825
G1 X68.033 Y191.532 E54.79185
G1 X64.895 Y189.631 E55.12545
G1 X63.398 Y188.339 E55.30527
G1 X62.144 Y187.119 E55.46437
G1 X57.144 Y182.119 E56.10734
G1 X54.847 Y179.258 E56.44094
G1 X53.223 Y175.968 E56.77454
G1 X52.348 Y172.405 E57.10814
G1 X52.202 Y170.187 E57.31033
G1 X52.202 Y148.187 E59.31078
G1 X52.601 Y144.540 E59.64438
G1 X53.778 Y141.065 E59.97798
G1 X55.679 Y137.927 E60.31157
G1 X57.144 Y136.254 E60.51377
G1 X62.496 Y130.913 E61.20132
G1 X63.574 Y129.895 E61.33613
G1 X66.453 Y127.719 E61.66427
G1 X66.879 Y128.185 F900.000
G1 F480
G1 X70.161 Y126.706 E61.99161
G1 X75.155 Y125.919 E62.45126
G1 X141.655 Y125.919 E68.49808
G1 X146.089 Y126.536 E68.90520
G1 X151.401 Y128.043 E69.40726
G1 X152.789 Y128.505 E69.54029
G1 X153.767 Y128.881 E69.63554
G1 X155.320 Y129.572 E69.79014
G1 X156.254 Y130.048 E69.88538
G1 X157.727 Y130.898 E70.04004
G1 X158.605 Y131.468 E70.13522
G1 X159.981 Y132.468 E70.28988
G1 X160.794 Y133.127 E70.38505
G1 X162.058 Y134.265 E70.53971
G1 X162.798 Y135.005 E70.63489
G1 X163.936 Y136.269 E70.78956
G1 X164.595 Y137.082 E70.88474
G1 X165.595 Y138.458 E71.03938
G1 X166.165 Y139.336 E71.13458
G1 X167.028 Y140.834 E71.29180
G1 X167.491 Y141.742 E71.38441
G1 X168.182 Y143.296 E71.53907
G1 X168.557 Y144.273 E71.63425
G1 X169.083 Y145.890 E71.78884
G1 X169.354 Y146.902 E71.88410
G1 X169.707 Y148.564 E72.03864
G1 X169.871 Y149.599 E72.13392
G1 X170.049 Y151.291 E72.28860
G1 X170.104 Y152.336 E72.38377
G1 X170.126 Y153.187 E72.46113
G1 X170.126 Y165.187 E73.55228
G1 X170.049 Y167.082 E73.72480
G1 X169.871 Y168.774 E73.87948
G1 X169.708 Y169.808 E73.97465
G1 X169.354 Y171.471 E74.12929
G1 X169.083 Y172.482 E74.22447
G1 X168.558 Y174.098 E74.37894
G1 X168.182 Y175.077 E74.47433
G1 X167.491 Y176.631 E74.62894
G1 X167.015 Y177.564 E74.72416
G1 X166.149 Y179.062 E74.88150
G1 X165.595 Y179.915 E74.97399
G1 X164.595 Y181.290 E75.12861
G1 X163.936 Y182.104 E75.22384
G1 X162.799 Y183.367 E75.37839
G1 X162.058 Y184.108 E75.47368
G1 X160.794 Y185.246 E75.62834
G1 X159.981 Y185.905 E75.72352
G1 X158.605 Y186.904 E75.87808
G1 X157.727 Y187.475 E75.97336
G1 X156.254 Y188.325 E76.12801
G1 X155.321 Y188.801 E76.22319
G1 X153.767 Y189.492 E76.37786
G1 X152.790 Y189.868 E76.47303
G1 X151.482 Y190.307 E76.59846
G1 X146.171 Y191.843 E77.10127
G1 X141.655 Y192.484 E77.51600
G1 X75.155 Y192.484 E83.56281
G1 X71.577 Y192.085 E83.89016
G1 X68.175 Y190.908 E84.21750
G1 X63.833 Y187.891 E84.69823
G1 X62.586 Y186.677 E84.85649
G1 X57.586 Y181.677 E85.49947
G1 X55.338 Y178.865 E85.82681
G1 X53.764 Y175.627 E86.15416
G1 X52.942 Y172.122 E86.48150
G1 X52.827 Y170.187 E86.65783
G1 X52.827 Y148.187 E88.65828
G1 X53.225 Y144.609 E88.98563
G1 X54.402 Y141.206 E89.31297
G1 X56.299 Y138.147 E89.64032
G1 X57.586 Y136.696 E89.81665
G1 X62.586 Y131.696 E90.45962
G1 X64.003 Y130.350 E90.63736
G1 X66.831 Y128.221 E90.95924
G1 X67.257 Y128.687 F900.000
G1 F480
G1 X70.484 Y127.259 E91.28021
G1 X75.155 Y126.544 E91.70983
G1 X141.655 Y126.544 E97.75665
G1 X145.919 Y127.137 E98.14812
G1 X151.231 Y128.644 E98.65018
G1 X152.565 Y129.089 E98.77809
G1 X153.543 Y129.464 E98.87333
G1 X155.037 Y130.129 E99.02199
G1 X155.970 Y130.604 E99.11722
G1 X157.386 Y131.422 E99.26594
G1 X158.264 Y131.992 E99.36112
G1 X159.587 Y132.954 E99.50983
G1 X160.401 Y133.612 E99.60501
G1 X161.616 Y134.707 E99.75372
G1 X162.356 Y135.447 E99.84889
G1 X163.451 Y136.662 E99.99762
G1 X164.109 Y137.476 E100.09279
G1 X165.117 Y138.869 E100.24916
G1 X165.641 Y139.677 E100.33668
G1 X166.458 Y141.092 E100.48527
G1 X166.934 Y142.026 E100.58057
G1 X167.599 Y143.520 E100.72928
G1 X167.974 Y144.497 E100.82446
G1 X168.479 Y146.052 E100.97310
G1 X168.750 Y147.063 E101.06836
G1 X169.090 Y148.662 E101.21696
G1 X169.254 Y149.697 E101.31224
G1 X169.425 Y151.324 E101.46096
G1 X169.480 Y152.369 E101.55614
G1 X169.501 Y153.187 E101.63052
G1 X169.501 Y165.187 E102.72167
G1 X169.425 Y167.050 E102.89121
G1 X169.254 Y168.676 E103.03995
G1 X169.090 Y169.710 E103.13512
G1 X168.750 Y171.310 E103.28382
G1 X168.479 Y172.321 E103.37899
G1 X167.975 Y173.874 E103.52752
G1 X167.599 Y174.853 E103.62290
G1 X166.934 Y176.347 E103.77157
G1 X166.459 Y177.280 E103.86679
G1 X165.641 Y178.696 E104.01540
G1 X165.071 Y179.574 E104.11068
G1 X164.110 Y180.897 E104.25935
G1 X163.451 Y181.711 E104.35457
G1 X162.357 Y182.926 E104.50318
G1 X161.616 Y183.666 E104.59847
G1 X160.401 Y184.761 E104.74718
G1 X159.587 Y185.420 E104.84236
G1 X158.265 Y186.380 E104.99098
G1 X157.386 Y186.951 E105.08625
G1 X155.970 Y187.769 E105.23496
G1 X155.037 Y188.244 E105.33013
G1 X153.543 Y188.909 E105.47885
G1 X152.566 Y189.284 E105.57403
G1 X151.309 Y189.707 E105.69463
G1 X145.997 Y191.243 E106.19745
G1 X141.655 Y191.859 E106.59622
G1 X75.155 Y191.859 E112.64304
G1 X71.647 Y191.460 E112.96401
G1 X68.319 Y190.284 E113.28498
G1 X64.269 Y187.442 E113.73488
G1 X63.028 Y186.235 E113.89231
G1 X58.028 Y181.235 E114.53529
G1 X55.830 Y178.473 E114.85625
G1 X54.308 Y175.288 E115.17722
G1 X53.452 Y170.187 E115.64760
G1 X53.452 Y148.187 E117.64805
G1 X53.850 Y144.679 E117.96902
G1 X55.026 Y141.351 E118.28999
G1 X58.028 Y137.138 E118.76037
G1 X63.028 Y132.138 E119.40334
G1 X64.432 Y130.804 E119.57942
G1 X67.209 Y128.723 E119.89493
G1 E117.89493 F600.00000
G92 E0
G1 X68.254 Y131.095 F900.000
G1 E2.00000 F600.00000
G1 F480
G1 X72.594 Y129.297 E2.42729
G1 X146.986 Y129.297 E9.19292
G1 X148.434 Y130.745 E9.37910
G1 X148.518 Y130.790 E9.38775
G1 X148.961 Y130.884 E9.42902
G1 X150.624 Y131.330 E9.58551
G1 X151.264 Y131.538 E9.64679
G1 X152.871 Y132.155 E9.80332
G1 X153.487 Y132.429 E9.86461
G1 X155.021 Y133.210 E10.02115
G1 X155.605 Y133.547 E10.08248
G1 X157.048 Y134.485 E10.23896
G1 X157.593 Y134.881 E10.30026
G1 X158.930 Y135.964 E10.45679
G1 X159.432 Y136.415 E10.51815
G1 X160.648 Y137.632 E10.67458
G1 X161.099 Y138.133 E10.73590
G1 X162.182 Y139.470 E10.89243
G1 X162.579 Y140.016 E10.95378
G1 X163.515 Y141.458 E11.11019
G1 X163.852 Y142.042 E11.17145
G1 X164.634 Y143.576 E11.32807
G1 X164.909 Y144.193 E11.38945
G1 X165.525 Y145.798 E11.54582
G1 X165.733 Y146.439 E11.60710
G1 X166.178 Y148.101 E11.76363
G1 X166.318 Y148.760 E11.82487
G1 X166.588 Y150.461 E11.98147
G1 X166.658 Y151.131 E12.04281
G1 X166.748 Y153.018 E12.21459
G1 X166.748 Y165.355 E13.33657
G1 X166.658 Y167.242 E13.50843
G1 X166.588 Y167.914 E13.56980
G1 X166.319 Y169.612 E13.72623
G1 X166.178 Y170.272 E13.78757
G1 X165.733 Y171.933 E13.94398
G1 X165.525 Y172.574 E14.00521
G1 X164.908 Y174.182 E14.16187
G1 X164.633 Y174.798 E14.22324
G1 X163.853 Y176.330 E14.37963
G1 X163.516 Y176.914 E14.44090
G1 X162.578 Y178.358 E14.59746
G1 X162.182 Y178.903 E14.65875
G1 X161.099 Y180.240 E14.81526
G1 X160.649 Y180.741 E14.87652
G1 X159.431 Y181.958 E15.03310
G1 X158.930 Y182.409 E15.09441
G1 X157.593 Y183.492 E15.25089
G1 X156.741 Y184.088 E15.34547
G1 X155.604 Y184.826 E15.46869
G1 X155.020 Y185.163 E15.53001
G1 X153.487 Y185.944 E15.68650
G1 X152.871 Y186.218 E15.74782
G1 X151.265 Y186.835 E15.90432
G1 X150.624 Y187.043 E15.96564
G1 X148.961 Y187.489 E16.12213
G1 X148.556 Y187.575 E16.15987
G1 X148.472 Y187.620 E16.16852
G1 X146.986 Y189.106 E16.35958
G1 X72.594 Y189.106 E23.12522
G1 X67.863 Y187.146 E23.59093
G1 X66.861 Y186.144 E23.71981
G1 X66.785 Y186.099 E23.72788
G1 X58.164 Y177.478 E24.83668
G1 X56.204 Y172.747 E25.30239
G1 X56.204 Y145.626 E27.76891
G1 X58.164 Y140.895 E28.23462
G1 X66.785 Y132.274 E29.34342
G1 X66.912 Y132.208 E29.35648
G1 X67.864 Y131.257 E29.47882
G1 X68.198 Y131.118 E29.51177
G1 X68.493 Y131.672 F900.000
G1 F480
G1 X72.719 Y129.922 E29.92775
G1 X146.728 Y129.922 E36.65854
G1 X148.123 Y131.318 E36.83801
G1 X148.207 Y131.363 E36.84666
G1 X148.816 Y131.492 E36.90328
G1 X150.446 Y131.929 E37.05679
G1 X151.056 Y132.127 E37.11509
G1 X152.632 Y132.732 E37.26865
G1 X153.218 Y132.993 E37.32696
G1 X154.722 Y133.760 E37.48053
G1 X155.278 Y134.081 E37.53887
G1 X156.693 Y135.000 E37.69238
G1 X157.212 Y135.377 E37.75070
G1 X158.524 Y136.439 E37.90426
G1 X159.001 Y136.869 E37.96263
G1 X160.195 Y138.062 E38.11609
G1 X160.624 Y138.539 E38.17444
G1 X161.686 Y139.851 E38.32798
G1 X162.064 Y140.370 E38.38636
G1 X162.982 Y141.785 E38.53979
G1 X163.303 Y142.340 E38.59808
G1 X164.070 Y143.845 E38.75171
G1 X164.331 Y144.432 E38.81012
G1 X164.935 Y146.007 E38.96352
G1 X165.134 Y146.616 E39.02182
G1 X165.570 Y148.247 E39.17537
G1 X165.704 Y148.874 E39.23364
G1 X165.968 Y150.542 E39.38726
G1 X166.035 Y151.180 E39.44562
G1 X166.123 Y153.026 E39.61368
G1 X166.123 Y165.347 E40.73418
G1 X166.035 Y167.193 E40.90231
G1 X165.968 Y167.832 E40.96070
G1 X165.704 Y169.498 E41.11416
G1 X165.570 Y170.126 E41.17252
G1 X165.134 Y171.756 E41.32596
G1 X164.936 Y172.365 E41.38422
G1 X164.330 Y173.943 E41.53789
G1 X164.069 Y174.529 E41.59628
G1 X163.303 Y176.032 E41.74970
G1 X162.983 Y176.587 E41.80799
G1 X162.063 Y178.003 E41.96157
G1 X161.686 Y178.522 E42.01989
G1 X160.624 Y179.834 E42.17342
G1 X160.195 Y180.311 E42.23171
G1 X159.001 Y181.505 E42.38530
G1 X158.524 Y181.934 E42.44364
G1 X157.212 Y182.996 E42.59714
G1 X156.400 Y183.564 E42.68726
G1 X155.278 Y184.293 E42.80899
G1 X154.722 Y184.613 E42.86733
G1 X153.218 Y185.380 E43.02085
G1 X152.632 Y185.641 E43.07919
G1 X151.056 Y186.246 E43.23271
G1 X150.446 Y186.444 E43.29105
G1 X148.815 Y186.881 E43.44457
G1 X148.245 Y187.002 E43.49765
G1 X148.161 Y187.047 E43.50631
G1 X146.728 Y188.481 E43.69066
G1 X72.719 Y188.481 E50.42145
G1 X68.217 Y186.616 E50.86455
G1 X67.215 Y185.614 E50.99342
G1 X67.139 Y185.569 E51.00149
G1 X58.694 Y177.124 E52.08768
G1 X56.829 Y172.623 E52.53078
G1 X56.829 Y145.750 E54.97468
G1 X58.694 Y141.249 E55.41779
G1 X67.139 Y132.804 E56.50397
G1 X67.266 Y132.738 E56.51703
G1 X68.218 Y131.786 E56.63937
G1 X68.438 Y131.695 E56.66102
G1 X68.732 Y132.250 F900.000
G1 F480
G1 X72.843 Y130.547 E57.06569
G1 X146.469 Y130.547 E63.76162
G1 X147.823 Y131.901 E63.93581
G1 X147.916 Y131.949 E63.94527
G1 X148.670 Y132.100 E64.01521
G1 X150.268 Y132.529 E64.16574
G1 X151.159 Y132.836 E64.25141
G1 X152.393 Y133.310 E64.37162
G1 X152.949 Y133.558 E64.42696
G1 X154.424 Y134.309 E64.57754
G1 X154.951 Y134.614 E64.63291
G1 X156.339 Y135.515 E64.78344
G1 X156.832 Y135.873 E64.83879
G1 X158.118 Y136.915 E64.98937
G1 X158.571 Y137.322 E65.04476
G1 X159.741 Y138.492 E65.19525
G1 X160.148 Y138.945 E65.25062
G1 X161.190 Y140.231 E65.40118
G1 X161.548 Y140.724 E65.45658
G1 X162.449 Y142.112 E65.60705
G1 X162.753 Y142.638 E65.66236
G1 X163.505 Y144.114 E65.81301
G1 X163.753 Y144.671 E65.86843
