; generated by Slic3r 1.3.0 on 2022-10-26 at 19:16:05

; external perimeters extrusion width = 0.44mm (0.68mm^3/s)
; perimeters extrusion width = 0.48mm (1.51mm^3/s)
; infill extrusion width = 0.48mm (1.51mm^3/s)
; solid infill extrusion width = 0.48mm (1.51mm^3/s)
; top infill extrusion width = 0.48mm (1.88mm^3/s)

M107
M190 S100 ; set bed temperature and wait for it to be reached
M104 S248 ; set temperature
G28 ; home all axes
G1 Z5 F5000 ; lift nozzle

; Filament gcode

M109 S248 ; set temperature and wait for it to be reached
G21 ; set units to millimeters
G90 ; use absolute coordinates
M82 ; use absolute distances for extrusion
G92 E0
G1 Z0.350 F900.000
G1 E-2.00000 F600.00000
G92 E0
G1 X69.975 Y141.115 F900.000
G1 E2.00000 F600.00000
G1 F480
G1 X73.363 Y139.539 E2.33974
G1 X77.008 Y138.718 E2.67947
G1 X79.009 Y138.603 E2.86172
G1 X145.509 Y138.603 E8.90854
G1 X150.285 Y139.267 E9.34697
G1 X155.596 Y140.774 E9.84904
G1 X157.091 Y141.272 E9.99232
G1 X158.069 Y141.647 E10.08756
G1 X159.742 Y142.392 E10.25405
G1 X160.675 Y142.867 E10.34928
G1 X162.260 Y143.783 E10.51572
G1 X163.139 Y144.353 E10.61102
G1 X164.619 Y145.428 E10.77734
G1 X165.435 Y146.089 E10.87276
G1 X166.796 Y147.314 E11.03931
G1 X167.536 Y148.055 E11.13449
G1 X168.772 Y149.429 E11.30255
G1 X169.420 Y150.229 E11.39623
G1 X170.496 Y151.709 E11.56256
G1 X171.067 Y152.589 E11.65797
G1 X171.983 Y154.175 E11.82447
G1 X172.458 Y155.108 E11.91969
G1 X173.203 Y156.781 E12.08625
G1 X173.578 Y157.758 E12.18142
G1 X174.144 Y159.501 E12.34799
G1 X174.415 Y160.512 E12.44317
G1 X174.796 Y162.303 E12.60970
G1 X174.960 Y163.337 E12.70488
G1 X175.151 Y165.158 E12.87137
G1 X175.206 Y166.204 E12.96664
G1 X175.230 Y167.120 E13.04994
G1 X175.230 Y179.120 E14.14109
G1 X175.206 Y180.032 E14.22406
G1 X175.151 Y181.081 E14.31957
G1 X174.952 Y182.953 E14.49071
G1 X174.796 Y183.937 E14.58132
G1 X174.415 Y185.728 E14.74785
G1 X174.144 Y186.739 E14.84303
G1 X173.580 Y188.478 E15.00928
G1 X173.203 Y189.459 E15.10478
G1 X172.459 Y191.131 E15.27122
G1 X171.983 Y192.065 E15.36651
G1 X171.067 Y193.651 E15.53303
G1 X170.497 Y194.529 E15.62824
G1 X169.421 Y196.010 E15.79473
G1 X168.762 Y196.824 E15.88998
G1 X167.524 Y198.197 E16.05804
G1 X166.796 Y198.925 E16.15172
G1 X165.435 Y200.151 E16.31821
G1 X164.621 Y200.810 E16.41345
G1 X163.139 Y201.886 E16.58001
G1 X162.261 Y202.457 E16.67518
G1 X160.675 Y203.372 E16.84174
G1 X159.743 Y203.848 E16.93692
G1 X158.069 Y204.593 E17.10346
G1 X157.092 Y204.968 E17.19864
G1 X155.684 Y205.441 E17.33372
G1 X150.372 Y206.977 E17.83654
G1 X145.509 Y207.667 E18.28316
G1 X79.009 Y207.667 E24.32997
G1 X75.294 Y207.268 E24.66971
G1 X71.748 Y206.090 E25.00945
G1 X68.534 Y204.185 E25.34918
G1 X66.817 Y202.721 E25.55438
G1 X65.556 Y201.494 E25.71431
G1 X60.556 Y196.494 E26.35728
G1 X58.212 Y193.585 E26.69702
G1 X56.538 Y190.245 E27.03676
G1 X55.611 Y186.625 E27.37649
G1 X55.431 Y184.120 E27.60489
G1 X55.431 Y162.120 E29.60534
G1 X55.830 Y158.405 E29.94507
G1 X57.008 Y154.859 E30.28481
G1 X58.912 Y151.645 E30.62455
G1 X60.556 Y149.746 E30.85292
G1 X65.557 Y144.746 E31.49592
G1 X67.000 Y143.374 E31.67695
G1 X69.928 Y141.151 E32.01123
G1 X70.355 Y141.616 F900.000
G1 F480
G1 X73.690 Y140.088 E32.34483
G1 X79.009 Y139.228 E32.83474
G1 X145.509 Y139.228 E38.88156
G1 X150.114 Y139.868 E39.30433
G1 X155.426 Y141.375 E39.80640
G1 X156.868 Y141.855 E39.94456
G1 X157.845 Y142.231 E40.03980
G1 X159.458 Y142.949 E40.20035
G1 X160.391 Y143.424 E40.29558
G1 X161.920 Y144.307 E40.45607
G1 X162.799 Y144.877 E40.55136
G1 X164.226 Y145.914 E40.71175
G1 X165.041 Y146.574 E40.80715
G1 X166.354 Y147.756 E40.96776
G1 X167.094 Y148.496 E41.06294
G1 X168.287 Y149.822 E41.22506
G1 X168.935 Y150.623 E41.31873
G1 X169.972 Y152.050 E41.47912
G1 X170.543 Y152.929 E41.57452
G1 X171.426 Y154.459 E41.73508
G1 X171.901 Y155.392 E41.83030
G1 X172.620 Y157.005 E41.99090
G1 X172.995 Y157.982 E42.08608
G1 X173.541 Y159.662 E42.24670
G1 X173.812 Y160.673 E42.34188
G1 X174.179 Y162.401 E42.50247
G1 X174.343 Y163.435 E42.59765
G1 X174.527 Y165.191 E42.75819
G1 X174.582 Y166.237 E42.85346
G1 X174.605 Y167.120 E42.93378
G1 X174.605 Y179.120 E44.02493
G1 X174.582 Y180.000 E44.10494
G1 X174.527 Y181.048 E44.20044
G1 X174.335 Y182.856 E44.36573
G1 X174.179 Y183.839 E44.45624
G1 X173.812 Y185.566 E44.61682
G1 X173.541 Y186.577 E44.71200
G1 X172.996 Y188.254 E44.87231
G1 X172.620 Y189.235 E44.96781
G1 X171.902 Y190.847 E45.12830
G1 X171.426 Y191.781 E45.22359
G1 X170.543 Y193.310 E45.38416
G1 X169.973 Y194.188 E45.47937
G1 X168.935 Y195.617 E45.63992
G1 X168.276 Y196.431 E45.73516
G1 X167.082 Y197.755 E45.89728
G1 X166.354 Y198.484 E45.99095
G1 X165.042 Y199.665 E46.15150
G1 X164.228 Y200.324 E46.24673
G1 X162.799 Y201.362 E46.40734
G1 X161.921 Y201.933 E46.50252
G1 X160.391 Y202.816 E46.66313
G1 X159.459 Y203.291 E46.75831
G1 X157.845 Y204.009 E46.91891
G1 X156.868 Y204.384 E47.01409
G1 X155.510 Y204.840 E47.14434
G1 X150.198 Y206.377 E47.64716
G1 X145.509 Y207.042 E48.07783
G1 X79.009 Y207.042 E54.12464
G1 X75.362 Y206.643 E54.45824
G1 X71.887 Y205.465 E54.79184
G1 X68.749 Y203.565 E55.12544
G1 X67.252 Y202.272 E55.30526
G1 X65.998 Y201.052 E55.46436
G1 X60.998 Y196.052 E56.10733
G1 X58.702 Y193.191 E56.44093
G1 X57.077 Y189.902 E56.77453
G1 X56.202 Y186.339 E57.10812
G1 X56.056 Y184.120 E57.31032
G1 X56.056 Y162.120 E59.31077
G1 X56.455 Y158.473 E59.64437
G1 X57.632 Y154.998 E59.97797
G1 X59.533 Y151.860 E60.31157
G1 X60.998 Y150.188 E60.51374
G1 X66.350 Y144.846 E61.20132
G1 X67.428 Y143.829 E61.33612
G1 X70.307 Y141.652 E61.66426
G1 X70.733 Y142.118 F900.000
G1 F480
G1 X74.015 Y140.639 E61.99161
G1 X79.009 Y139.853 E62.45125
G1 X145.509 Y139.853 E68.49807
G1 X149.943 Y140.470 E68.90519
G1 X155.255 Y141.976 E69.40726
G1 X156.644 Y142.439 E69.54030
G1 X157.621 Y142.814 E69.63554
G1 X159.175 Y143.506 E69.79014
G1 X160.108 Y143.981 E69.88537
G1 X161.580 Y144.831 E70.03992
G1 X162.459 Y145.402 E70.13521
G1 X163.833 Y146.400 E70.28965
G1 X164.648 Y147.060 E70.38505
G1 X165.912 Y148.198 E70.53971
G1 X166.652 Y148.938 E70.63489
G1 X167.801 Y150.215 E70.79106
G1 X168.449 Y151.016 E70.88473
G1 X169.448 Y152.390 E71.03919
G1 X170.019 Y153.270 E71.13458
G1 X170.869 Y154.742 E71.28919
G1 X171.345 Y155.675 E71.38441
G1 X172.036 Y157.229 E71.53906
G1 X172.412 Y158.206 E71.63424
G1 X172.937 Y159.824 E71.78892
G1 X173.208 Y160.835 E71.88409
G1 X173.562 Y162.499 E72.03873
G1 X173.725 Y163.533 E72.13391
G1 X173.903 Y165.223 E72.28851
G1 X173.958 Y166.270 E72.38377
G1 X173.980 Y167.120 E72.46112
G1 X173.980 Y179.120 E73.55228
G1 X173.903 Y181.016 E73.72479
G1 X173.718 Y182.757 E73.88404
G1 X173.562 Y183.741 E73.97465
G1 X173.208 Y185.405 E74.12928
G1 X172.937 Y186.416 E74.22446
G1 X172.413 Y188.030 E74.37883
G1 X172.036 Y189.011 E74.47432
G1 X171.345 Y190.564 E74.62887
G1 X170.869 Y191.497 E74.72415
G1 X170.019 Y192.970 E74.87878
G1 X169.449 Y193.848 E74.97398
G1 X168.450 Y195.224 E75.12859
G1 X167.790 Y196.038 E75.22383
G1 X166.641 Y197.313 E75.38000
G1 X165.912 Y198.042 E75.47367
G1 X164.649 Y199.179 E75.62828
G1 X163.835 Y199.839 E75.72351
G1 X162.459 Y200.838 E75.87817
G1 X161.581 Y201.408 E75.97335
G1 X160.108 Y202.259 E76.12801
G1 X159.175 Y202.734 E76.22319
G1 X157.621 Y203.426 E76.37784
G1 X156.644 Y203.801 E76.47302
G1 X155.337 Y204.240 E76.59845
G1 X150.025 Y205.777 E77.10126
G1 X145.509 Y206.417 E77.51599
G1 X79.009 Y206.417 E83.56280
G1 X75.431 Y206.018 E83.89015
G1 X72.029 Y204.841 E84.21749
G1 X67.688 Y201.824 E84.69822
G1 X66.440 Y200.610 E84.85649
G1 X61.440 Y195.610 E85.49945
G1 X59.192 Y192.798 E85.82680
G1 X57.619 Y189.561 E86.15414
G1 X56.796 Y186.056 E86.48149
G1 X56.681 Y184.120 E86.65782
G1 X56.681 Y162.120 E88.65827
G1 X57.080 Y158.542 E88.98562
G1 X58.256 Y155.140 E89.31296
G1 X60.153 Y152.080 E89.64031
G1 X61.440 Y150.630 E89.81662
G1 X66.440 Y145.630 E90.45962
G1 X67.857 Y144.283 E90.63735
G1 X70.685 Y142.154 E90.95924
G1 X71.111 Y142.621 F900.000
G1 F480
G1 X74.338 Y141.192 E91.28021
G1 X79.009 Y140.478 E91.70982
G1 X145.509 Y140.478 E97.75664
G1 X149.773 Y141.071 E98.14810
G1 X155.085 Y142.578 E98.65017
G1 X156.420 Y143.022 E98.77810
G1 X157.397 Y143.397 E98.87333
G1 X158.891 Y144.062 E99.02199
G1 X159.824 Y144.538 E99.11722
G1 X161.239 Y145.355 E99.26582
G1 X162.118 Y145.926 E99.36111
G1 X163.440 Y146.886 E99.50961
G1 X164.255 Y147.546 E99.60500
G1 X165.470 Y148.640 E99.75371
G1 X166.210 Y149.380 E99.84889
G1 X167.315 Y150.609 E99.99912
G1 X167.964 Y151.409 E100.09279
G1 X168.924 Y152.730 E100.24130
G1 X169.495 Y153.610 E100.33668
G1 X170.312 Y155.026 E100.48535
G1 X170.788 Y155.959 E100.58057
G1 X171.453 Y157.453 E100.72928
G1 X171.828 Y158.430 E100.82446
G1 X172.334 Y159.986 E100.97318
G1 X172.605 Y160.997 E101.06836
G1 X172.945 Y162.596 E101.21705
G1 X173.108 Y163.630 E101.31223
G1 X173.279 Y165.256 E101.46088
G1 X173.334 Y166.302 E101.55614
G1 X173.355 Y167.120 E101.63052
G1 X173.355 Y179.120 E102.72167
G1 X173.279 Y180.983 E102.89122
G1 X173.100 Y182.660 E103.04461
G1 X172.944 Y183.644 E103.13512
G1 X172.605 Y185.243 E103.28381
G1 X172.334 Y186.254 E103.37899
G1 X171.829 Y187.807 E103.52742
G1 X171.453 Y188.787 E103.62289
G1 X170.788 Y190.280 E103.77150
G1 X170.313 Y191.214 E103.86678
G1 X169.495 Y192.630 E104.01546
G1 X168.925 Y193.508 E104.11067
G1 X167.931 Y194.871 E104.26405
G1 X167.305 Y195.644 E104.35456
G1 X166.211 Y196.859 E104.50316
G1 X165.470 Y197.600 E104.59845
G1 X164.215 Y198.726 E104.75177
G1 X163.441 Y199.353 E104.84234
G1 X162.118 Y200.314 E104.99105
G1 X161.240 Y200.884 E105.08623
G1 X159.824 Y201.702 E105.23494
G1 X158.891 Y202.177 E105.33012
G1 X157.397 Y202.842 E105.47883
G1 X156.420 Y203.218 E105.57400
G1 X155.163 Y203.640 E105.69462
G1 X149.851 Y205.177 E106.19743
G1 X145.509 Y205.792 E106.59620
G1 X79.009 Y205.792 E112.64302
G1 X75.502 Y205.393 E112.96399
G1 X72.173 Y204.218 E113.28496
G1 X68.123 Y201.376 E113.73485
G1 X66.882 Y200.168 E113.89229
G1 X61.882 Y195.168 E114.53526
G1 X59.684 Y192.406 E114.85623
G1 X58.162 Y189.222 E115.17720
G1 X57.306 Y184.120 E115.64758
G1 X57.306 Y162.120 E117.64803
G1 X57.704 Y158.613 E117.96900
G1 X58.880 Y155.284 E118.28997
G1 X61.882 Y151.072 E118.76032
G1 X66.882 Y146.071 E119.40333
G1 X68.286 Y144.738 E119.57940
G1 X71.063 Y142.657 E119.89492
G1 E117.89492 F600.00000
G92 E0
G1 X72.108 Y145.028 F900.000
G1 E2.00000 F600.00000
G1 F480
G1 X76.448 Y143.231 E2.42727
G1 X150.841 Y143.231 E9.19292
G1 X152.288 Y144.678 E9.37909
G1 X152.372 Y144.724 E9.38775
G1 X152.816 Y144.818 E9.42901
G1 X154.478 Y145.263 E9.58550
G1 X155.118 Y145.471 E9.64677
G1 X156.726 Y146.088 E9.80334
G1 X157.342 Y146.363 E9.86467
G1 X158.874 Y147.144 E10.02111
G1 X159.458 Y147.480 E10.08236
G1 X160.901 Y148.418 E10.23891
G1 X161.446 Y148.813 E10.30014
G1 X162.785 Y149.897 E10.45679
G1 X163.286 Y150.349 E10.51815
G1 X164.502 Y151.565 E10.67454
G1 X164.952 Y152.065 E10.73578
G1 X166.036 Y153.403 E10.89236
G1 X166.432 Y153.948 E10.95358
G1 X167.370 Y155.392 E11.11024
G1 X167.707 Y155.977 E11.17160
G1 X168.488 Y157.510 E11.32808
G1 X168.763 Y158.127 E11.38951
G1 X169.379 Y159.732 E11.54584
G1 X169.587 Y160.373 E11.60717
G1 X170.033 Y162.035 E11.76367
G1 X170.173 Y162.695 E11.82503
G1 X170.442 Y164.395 E11.98153
G1 X170.513 Y165.067 E12.04300
G1 X170.603 Y166.951 E12.21458
G1 X170.603 Y179.288 E13.33652
G1 X170.512 Y181.175 E13.50837
G1 X170.442 Y181.845 E13.56964
G1 X170.173 Y183.546 E13.72622
G1 X170.033 Y184.205 E13.78753
G1 X169.587 Y185.866 E13.94395
G1 X169.380 Y186.506 E14.00512
G1 X168.762 Y188.115 E14.16181
G1 X168.488 Y188.730 E14.22306
G1 X167.707 Y190.264 E14.37968
G1 X167.369 Y190.849 E14.44105
G1 X166.432 Y192.291 E14.59749
G1 X166.036 Y192.837 E14.65886
G1 X164.953 Y194.174 E14.81525
G1 X164.503 Y194.674 E14.87651
G1 X163.285 Y195.892 E15.03312
G1 X162.784 Y196.343 E15.09449
G1 X161.447 Y197.426 E15.25094
G1 X160.901 Y197.823 E15.31233
G1 X159.458 Y198.759 E15.46872
G1 X158.874 Y199.096 E15.53006
G1 X157.341 Y199.878 E15.68654
G1 X156.725 Y200.152 E15.74789
G1 X155.119 Y200.768 E15.90433
G1 X154.478 Y200.977 E15.96565
G1 X152.816 Y201.422 E16.12215
G1 X152.410 Y201.508 E16.15989
G1 X152.326 Y201.554 E16.16854
G1 X150.841 Y203.039 E16.35960
G1 X76.448 Y203.039 E23.12524
G1 X71.717 Y201.080 E23.59096
G1 X70.715 Y200.078 E23.71983
G1 X70.639 Y200.032 E23.72790
G1 X62.018 Y191.411 E24.83670
G1 X60.059 Y186.680 E25.30241
G1 X60.059 Y159.560 E27.76893
G1 X62.018 Y154.829 E28.23463
G1 X70.639 Y146.208 E29.34345
G1 X70.766 Y146.141 E29.35650
G1 X71.717 Y145.190 E29.47881
G1 X72.053 Y145.051 E29.51180
G1 X72.347 Y145.606 F900.000
G1 F480
G1 X76.573 Y143.856 E29.92777
G1 X150.582 Y143.856 E36.65856
G1 X151.977 Y145.251 E36.83803
G1 X152.061 Y145.296 E36.84668
G1 X152.670 Y145.426 E36.90330
G1 X154.300 Y145.863 E37.05681
G1 X154.910 Y146.061 E37.11510
G1 X156.486 Y146.666 E37.26870
G1 X157.072 Y146.927 E37.32704
G1 X158.576 Y147.693 E37.48051
G1 X159.131 Y148.013 E37.53878
G1 X160.547 Y148.933 E37.69236
G1 X161.065 Y149.309 E37.75061
G1 X162.379 Y150.373 E37.90428
G1 X162.856 Y150.802 E37.96266
G1 X164.048 Y151.995 E38.11608
G1 X164.477 Y152.471 E38.17435
G1 X165.540 Y153.784 E38.32794
G1 X165.917 Y154.302 E38.38620
G1 X166.837 Y155.719 E38.53987
G1 X167.158 Y156.275 E38.59825
G1 X167.924 Y157.779 E38.75175
G1 X168.185 Y158.366 E38.81020
G1 X168.790 Y159.940 E38.96356
G1 X168.988 Y160.551 E39.02191
G1 X169.425 Y162.181 E39.17544
G1 X169.558 Y162.809 E39.23382
G1 X169.822 Y164.476 E39.38734
G1 X169.889 Y165.116 E39.44583
G1 X169.978 Y166.960 E39.61370
G1 X169.978 Y179.280 E40.73415
G1 X169.889 Y181.126 E40.90228
G1 X169.822 Y181.764 E40.96057
G1 X169.558 Y183.432 E41.11418
G1 X169.425 Y184.059 E41.17251
G1 X168.988 Y185.689 E41.32595
G1 X168.790 Y186.298 E41.38416
G1 X168.185 Y187.875 E41.53786
G1 X167.924 Y188.461 E41.59614
G1 X167.157 Y189.966 E41.74977
G1 X166.836 Y190.522 E41.80816
G1 X165.917 Y191.937 E41.96163
G1 X165.540 Y192.457 E42.02002
G1 X164.478 Y193.768 E42.17344
G1 X164.049 Y194.244 E42.23173
G1 X162.855 Y195.438 E42.38535
G1 X162.378 Y195.868 E42.44374
G1 X161.066 Y196.930 E42.59722
G1 X160.546 Y197.307 E42.65563
G1 X159.132 Y198.226 E42.80905
G1 X158.576 Y198.547 E42.86741
G1 X157.072 Y199.313 E43.02092
G1 X156.486 Y199.574 E43.07928
G1 X154.910 Y200.179 E43.23275
G1 X154.300 Y200.377 E43.29109
G1 X152.670 Y200.814 E43.44462
G1 X152.099 Y200.935 E43.49771
G1 X152.015 Y200.981 E43.50636
G1 X150.582 Y202.414 E43.69071
G1 X76.573 Y202.414 E50.42150
G1 X72.071 Y200.550 E50.86460
G1 X71.069 Y199.548 E50.99348
G1 X70.993 Y199.502 E51.00154
G1 X62.548 Y191.057 E52.08773
G1 X60.684 Y186.556 E52.53083
G1 X60.684 Y159.684 E54.97473
G1 X62.548 Y155.183 E55.41782
G1 X70.993 Y146.737 E56.50403
G1 X71.120 Y146.671 E56.51708
G1 X72.071 Y145.720 E56.63939
G1 X72.292 Y145.629 E56.66107
G1 X72.586 Y146.183 F900.000
G1 F480
G1 X76.697 Y144.481 E57.06573
G1 X150.323 Y144.481 E63.76168
G1 X151.677 Y145.835 E63.93586
G1 X151.770 Y145.882 E63.94531
G1 X152.524 Y146.034 E64.01525
G1 X154.122 Y146.462 E64.16579
G1 X155.002 Y146.766 E64.25040
G1 X156.247 Y147.244 E64.37170
G1 X156.803 Y147.491 E64.42706
G1 X158.278 Y148.242 E64.57756
G1 X158.804 Y148.546 E64.63286
G1 X160.193 Y149.448 E64.78346
G1 X160.685 Y149.805 E64.83873
G1 X161.972 Y150.848 E64.98942
G1 X162.425 Y151.256 E65.04482
G1 X163.595 Y152.426 E65.19527
G1 X164.002 Y152.877 E65.25056
G1 X165.044 Y154.164 E65.40118
G1 X165.401 Y154.656 E65.45646
G1 X166.304 Y156.046 E65.60715
G1 X166.608 Y156.573 E65.66255
G1 X167.360 Y158.048 E65.81307
G1 X167.608 Y158.605 E65.86854
